X:1
T:The Beer Barrel Polka
M:4/4
L:1/8
K:F
 c/2d/2| c A2 c/2d/2 c A2 c/2d/2| cf g3/2 f/2 f e3| g2 g3/2 f/2 f e2 e/2f/2|\
 e d2 f/2e/2 d c2| c/2d/2| c A2 c/2d/2 c A2 c/2d/2| cf g3/2 f/2 f e2 g|\
 g2 g3/2 f/2 f e2 d| c^c de f2| c^c| d2 ^c d2 _BA G| d6 A_B| c2 B c2 AG F|\
 c3- c| fg f| e3 g d2 f2| e4- ef gf| e2 g2 d2 e2| c6| c^c| d2 ^c d2 _BA G|\
 d6 A_B| c2 B c2 AG F| c3- c| fg f| e3 g d2 f2| e4- ef gf| e3 g d2 e2|\
 f6| c4 c3 =B| c d3- d3 z| c d2 cd c2 =B| _B4- _B3 z| d4 d3 ^c| d e3- e3 z|\
 d e2 de d2 ^c| =c4- c3 z| c4 c3 =B| c d3- d3 z| c d2 cd c2 F| d4- d3 z|\
 GA _Bc e3 d| d c3- c2 =Bc| d4 e4| f4- f2 z2|||
